FINK
CUT[SETZT EUCH BRUEDER IN DIE RUNDE]
REG[Europa, Mitteleuropa, Deutschland]
KEY[F0490  08 Eb 4/4]
MEL[  -5_1_-5_.-3  -5-4-2-3-2-1-1_
    -5_1-6-5_.-3  -5-4-2-3-1_0_
    -2_.-5-5-4#-4#-6  -6-5-5-7-7-6-6_
    -2_.-5-5-4#-4#-6  -6-5-5-7-7-6-6_
    1_-6_2_.1  -7_-6_-5_
    -5-5  1_.-51_.-5  -4-3-2-1
    -6-41-6  -5_.-3-6-5-4-3  -2__
    -5_.-4  -4-3-2-11_-7-6  -6-5-5_
    -2-3-4-5  -6-7123_2_  1__0__ //] >>
FCT[Studenten -,  Burschenschafts - Lied]
